X: 6
T: No_15_War_Dance_Song.krn
N: Derived from No_15_War_Dance_Song.krn
%%abc-version 2.0
%%abcx-abcm2ps-target-version 5.9.1 (29 Sep 2008)
%%abc-creator hum2abc beta
%%abcx-conversion-date 2019/03/15 08:27:55
%%humdrum-veritas 1974181855
%%humdrum-veritas-data 3308246390
%%linebreak <none>
%%barnumbers 0
L: 1/8
M: 2/4
%%staves {1 2}
V: 1 clef=treble
V: 2 clef=bass
K: C
[V:1] [K:clef=treble][M:2/4]GE EG [I:setbarnb 2]| 
[V:2] [K:clef=bass][M:2/4]G,,G,, G,,G,, | 
[V:1] A/G3/E2 | 
[V:2] G,,G,, G,,G,, | 
[V:1] DD DD | 
[V:2] z4 | 
[V:1] GE EE | 
[V:2] z4 | 
[V:1] E3/D/ E/D/C | 
[V:2] z4 | 
[V:1] CC G,G, | 
[V:2] z4 | 
[V:1] DC CC/D/ | 
[V:2] z4 | 
[V:1] E/DD/ DE | 
[V:2] z4 | 
[V:1] [M:3/4]DD DG, DD | 
[V:2] [M:3/4]z6 | 
[V:1] [M:2/4]G,G, (3:2:4(G,/E,/) z/ G, | 
[V:2] [M:2/4]z4 | 
[V:1] (G,/E,/) zz2 :|]  
[V:2] z4 :|]  



